Internet-is-hard/flexbox/images/four.svg

<svg width="301" height="301" xmlns="http://www.w3.org/2000/svg"><g fill="none" fill-rule="evenodd"><path fill="#C3EDFA" d="M.813.457h300v300h-300z"/><path d="M168.42 169.84c.24-4.56 0-8.64 0-13.04v-3.12c.08-.56.08-1.04.08-1.6v-.88c0-.32 0-.56-.08-.64.24-.96.08-2.08-.32-2.8-.08-.24-.16-.4-.4-.48a1.23 1.23 0 00-.48-.32c-2.48-.4-4.64-.24-7.12-.16-.24 0-.48.08-.72.08-.88.24-1.68.56-2.08 1.6 0 .24-.08.48-.08.8-.08.48 0 1.04.16 1.68v2.88c0 .88-.08 1.52-.08 2.24-2.16-.08-4.48-.08-6.64-.08h-.32c-.08.08-.32.08-.64.08-.96.08-2-.16-2.96.08.24-.4.32-.88.56-1.28 0-.08.08-.24.16-.48l.96-2.56.8-1.92.32-.64.24-.64.32-.64.64-1.84.24-.64c.56-1.28.96-2.48 1.52-3.68l.32-.8c.32-1.04.8-2 1.04-3.04.08-.16.24-.4.32-.72.08-.24.08-.56.32-.8l1.76-5.2.64-1.6c.08-.24.08-.32.16-.4l.56-1.44.16-.48.64-1.84.4-.8c.16-.24.32-.48.4-.88.08-.08.08-.24.08-.48-.48-2.24-3.12-1.44-5.12-1.68-.24 0-.4-.08-.64-.08-2.64-.56-5.28.4-6 3.2-.08.24-.24.32-.32.56l-.48 1.28-.16.48c-.08.08-.08.16-.08.24-.64 2.24-3.68 8.96-4.8 12l-.24.64c-.56 1.52-1.12 2.88-1.84 4.4l-.24.72c-.24.24-.08.48-.32.72l-.24.72-.88 2.16c-.24.24-.16.48-.24.72l-.16.32c0 .08 0 .24-.08.4l-.32.88c-.16.16-.24.32-.32.56-1.2 2.32-2.08 4.72-3.04 7.04l-.24.64c-.8 1.36-1.12 2.96-1.04 4.8v.64l.32 1.12.4.48c.72.32 1.28.64 2.16.56.24 0 .32.08.56.08.24 0 .4-.08.64-.08s.48 0 .64.08c1.04 0 2 .08 3.04.08h3.76c1.52.08 2.8 0 4.16-.08.08-.08.32-.08.64-.08h8.56v5.84c0 1.6-.64 3.76.24 4.48l.56.4c.88.32 1.92.4 3.04.32h.8c2.24-.48 5.04 1.12 6.08-.8.64-1.36-.08-3.2.16-5.04v-.72c0-.56.08-.96.16-1.52zm-6.56-13.76c0-1.52-.08-2.96-.16-4.48v-.56c0-1.04 1.6-1.04 1.6 0v1.12c0 1.28.08 2.64 0 3.92 0 2 .08 3.2.08 4.4v1.6c0 1.28-.08 2.88-.08 5.68 0 .88 0 1.6.08 2.24 0 .32 0 .56.08.64 0 .56 0 .96.08 1.36v1.76c0 .48-.24.72-.8.72-.24 0-.48-.08-.56-.16-.24-.64-.24-1.36-.32-2v-2.8c0-.56.08-1.12.08-1.76v-5.44h-.08v-.08c-8.08 0-10-.08-12.16-.08-3.6 0-6.4.24-9.28.16h-1.84c-.16 0-.32-.08-.48-.24-.16-.08-.32-.32-.4-.64 0-.24.08-.56.16-.88 1.2-2 2.24-4 2.88-6.16l.24-.56c.08-.4.16-.72.4-1.12l.24-.72c.56-1.2.96-2.4 1.52-3.6l.24-.56.64-2 .48-1.28c0-.24.08-.4.16-.64l1.2-3.36.24-.64c.64-1.68 1.2-3.36 2.08-4.96l.24-.56.32-.56c.08-.32.24-.56.32-.72l.72-1.84.8-1.92.24-.64.32-.8c.32-.72.56-1.52.96-2.24.24-.4 1.28-.4 1.28 0-.32 3.44-1.92 5.52-2.8 7.76-.08.24-.16.48-.56 1.2-.96 2.56-2.16 5.04-3.04 7.68l-.24.72c-.24.72-.56 1.44-.8 2.32l-.24.64c-.4 1.2-.72 2.16-1.28 3.36l-.24.48-1.04 2.64-.24.64-.4 1.36-.24.72c-.72 1.84-2 3.36-2.24 5.36h.64c2.8.24 5.52.08 8.32.08h.64c.64 0 1.28.08 1.92.08.72 0 .88-.08 1.12-.08h9.28v-4.56h-.08z" fill="#5D6063"/></g></svg>

<?xml version="1.0" encoding="UTF-8" standalone="no"?>
<svg width="301px" height="301px" viewBox="0 0 301 301" version="1.1" xmlns="http://www.w3.org/2000/svg" xmlns:xlink="http://www.w3.org/1999/xlink">
    <!-- Generator: Sketch 3.7.1 (28215) - http://www.bohemiancoding.com/sketch -->
    <title>four</title>
    <desc>Created with Sketch.</desc>
    <defs></defs>
    <g id="Page-1" stroke="none" stroke-width="1" fill="none" fill-rule="evenodd">
        <g id="example-mockup" transform="translate(-472.000000, -665.000000)">
            <g id="four" transform="translate(472.000000, 665.000000)">
                <rect id="Rectangle-70-Copy-4" fill="#C3EDFA" x="0.813460524" y="0.456938041" width="300" height="300"></rect>
                <path d="M168.42,169.84 C168.66,165.28 168.42,161.2 168.42,156.8 L168.42,153.68 C168.5,153.12 168.5,152.64 168.5,152.08 L168.5,151.2 C168.5,150.88 168.5,150.64 168.42,150.56 C168.66,149.6 168.5,148.48 168.1,147.76 C168.02,147.52 167.94,147.36 167.7,147.28 C167.62,147.2 167.46,147.04 167.22,146.96 C164.74,146.56 162.58,146.72 160.1,146.8 C159.86,146.8 159.62,146.88 159.38,146.88 C158.5,147.12 157.7,147.44 157.3,148.48 C157.3,148.72 157.22,148.96 157.22,149.28 C157.14,149.76 157.22,150.32 157.38,150.96 L157.38,153.84 C157.38,154.72 157.3,155.36 157.3,156.08 C155.14,156 152.82,156 150.66,156 L150.34,156 C150.26,156.08 150.02,156.08 149.7,156.08 C148.74,156.16 147.7,155.92 146.74,156.16 C146.98,155.76 147.06,155.28 147.3,154.88 C147.3,154.8 147.38,154.64 147.46,154.4 L148.42,151.84 L149.22,149.92 L149.54,149.28 L149.78,148.64 L150.1,148 L150.74,146.16 L150.98,145.52 C151.54,144.24 151.94,143.04 152.5,141.84 L152.82,141.04 C153.14,140 153.62,139.04 153.86,138 C153.94,137.84 154.1,137.6 154.18,137.28 C154.26,137.04 154.26,136.72 154.5,136.48 L156.26,131.28 L156.9,129.68 C156.98,129.44 156.98,129.36 157.06,129.28 L157.62,127.84 L157.78,127.36 L158.42,125.52 L158.82,124.72 C158.98,124.48 159.14,124.24 159.22,123.84 C159.3,123.76 159.3,123.6 159.3,123.36 C158.82,121.12 156.18,121.92 154.18,121.68 C153.94,121.68 153.78,121.6 153.54,121.6 C150.9,121.04 148.26,122 147.54,124.8 C147.46,125.04 147.3,125.12 147.22,125.36 L146.74,126.64 L146.58,127.12 C146.5,127.2 146.5,127.28 146.5,127.36 C145.86,129.6 142.82,136.32 141.7,139.36 L141.46,140 C140.9,141.52 140.34,142.88 139.62,144.4 L139.38,145.12 C139.14,145.36 139.3,145.6 139.06,145.84 L138.82,146.56 L137.94,148.72 C137.7,148.96 137.78,149.2 137.7,149.44 L137.54,149.76 C137.54,149.84 137.54,150 137.46,150.16 L137.14,151.04 C136.98,151.2 136.9,151.36 136.82,151.6 C135.62,153.92 134.74,156.32 133.78,158.64 L133.54,159.28 C132.74,160.64 132.42,162.24 132.5,164.08 L132.5,164.72 L132.82,165.84 L133.22,166.32 C133.94,166.64 134.5,166.96 135.38,166.88 C135.62,166.88 135.7,166.96 135.94,166.96 C136.18,166.96 136.34,166.88 136.58,166.88 C136.82,166.88 137.06,166.88 137.22,166.96 C138.26,166.96 139.22,167.04 140.26,167.04 L144.02,167.04 C145.54,167.12 146.82,167.04 148.18,166.96 C148.26,166.88 148.5,166.88 148.82,166.88 L157.38,166.88 L157.38,172.72 C157.38,174.32 156.74,176.48 157.62,177.2 L158.18,177.6 C159.06,177.92 160.1,178 161.22,177.92 L162.02,177.92 C164.26,177.44 167.06,179.04 168.1,177.12 C168.74,175.76 168.02,173.92 168.26,172.08 L168.26,171.36 C168.26,170.8 168.34,170.4 168.42,169.84 L168.42,169.84 Z M161.86,156.08 C161.86,154.56 161.78,153.12 161.7,151.6 L161.7,151.04 C161.7,150 163.3,150 163.3,151.04 L163.3,152.16 C163.3,153.44 163.38,154.8 163.3,156.08 C163.3,158.08 163.38,159.28 163.38,160.48 L163.38,162.08 C163.38,163.36 163.3,164.96 163.3,167.76 C163.3,168.64 163.3,169.36 163.38,170 C163.38,170.32 163.38,170.56 163.46,170.64 C163.46,171.2 163.46,171.6 163.54,172 L163.54,173.76 C163.54,174.24 163.3,174.48 162.74,174.48 C162.5,174.48 162.26,174.4 162.18,174.32 C161.94,173.68 161.94,172.96 161.86,172.32 L161.86,169.52 C161.86,168.96 161.94,168.4 161.94,167.76 L161.94,162.32 L161.86,162.32 L161.86,162.24 C153.78,162.24 151.86,162.16 149.7,162.16 C146.1,162.16 143.3,162.4 140.42,162.32 L138.58,162.32 C138.42,162.32 138.26,162.24 138.1,162.08 C137.94,162 137.78,161.76 137.7,161.44 C137.7,161.2 137.78,160.88 137.86,160.56 C139.06,158.56 140.1,156.56 140.74,154.4 L140.98,153.84 C141.06,153.44 141.14,153.12 141.38,152.72 L141.62,152 C142.18,150.8 142.58,149.6 143.14,148.4 L143.38,147.84 L144.02,145.84 L144.5,144.56 C144.5,144.32 144.58,144.16 144.66,143.92 L145.86,140.56 L146.1,139.92 C146.74,138.24 147.3,136.56 148.18,134.96 L148.42,134.4 L148.74,133.84 C148.82,133.52 148.98,133.28 149.06,133.12 L149.78,131.28 L150.58,129.36 L150.82,128.72 L151.14,127.92 C151.46,127.2 151.7,126.4 152.1,125.68 C152.34,125.28 153.38,125.28 153.38,125.68 C153.06,129.12 151.46,131.2 150.58,133.44 C150.5,133.68 150.42,133.92 150.02,134.64 C149.06,137.2 147.86,139.68 146.98,142.32 L146.74,143.04 C146.5,143.76 146.18,144.48 145.94,145.36 L145.7,146 C145.3,147.2 144.98,148.16 144.42,149.36 L144.18,149.84 L143.14,152.48 L142.9,153.12 L142.5,154.48 L142.26,155.2 C141.54,157.04 140.26,158.56 140.02,160.56 L140.66,160.56 C143.46,160.8 146.18,160.64 148.98,160.64 L149.62,160.64 C150.26,160.64 150.9,160.72 151.54,160.72 C152.26,160.72 152.42,160.64 152.66,160.64 L161.94,160.64 L161.94,156.08 L161.86,156.08 Z" id="4" fill="#5D6063"></path>
            </g>
        </g>
    </g>
</svg>
